src/assets/icons/arrow.svg

<svg version="1.1" viewBox="0.000000 0.000000 31.479000 31.479000" xmlns="http://www.w3.org/2000/svg" xmlns:xlink="http://www.w3.org/1999/xlink" id="Capa_1" overflow="hidden"><path d=" M 26.476999 10.274000 C 26.921000 10.718000 26.921000 11.417000 26.476999 11.861000 C 26.048000 12.290000 25.334000 12.290000 24.906000 11.861000 L 16.858999 3.814000 L 16.858999 30.368999 C 16.858999 30.988001 16.367001 31.480000 15.748000 31.480000 C 15.129000 31.480000 14.621000 30.988001 14.621000 30.368999 L 14.621000 3.813000 L 6.590000 11.860000 C 6.146000 12.289000 5.431000 12.289000 5.003000 11.860000 C 4.559000 11.416000 4.559000 10.717000 5.003000 10.273000 L 14.955000 0.321000 C 15.384000 -0.108000 16.098000 -0.108000 16.525999 0.321000 L 26.476999 10.274000 Z" stroke="none" stroke-width="1.000000" stroke-linecap="butt" fill="#FFFFFF" fill-opacity="1.000000"/><g></g><g></g><g></g><g></g><g></g><g></g><g></g><g></g><g></g><g></g><g></g><g></g><g></g><g></g><g></g></svg>

<?xml version="1.0" encoding="iso-8859-1"?>
<!-- Generator: Adobe Illustrator 19.1.0, SVG Export Plug-In . SVG Version: 6.00 Build 0)  -->
<svg version="1.1" id="Capa_1" xmlns="http://www.w3.org/2000/svg" xmlns:xlink="http://www.w3.org/1999/xlink" x="0px" y="0px"
	 viewBox="0 0 31.479 31.479" style="enable-background:new 0 0 31.479 31.479;" xml:space="preserve">
<path style="fill:#1E201D;" d="M26.477,10.274c0.444,0.444,0.444,1.143,0,1.587c-0.429,0.429-1.143,0.429-1.571,0l-8.047-8.047
	v26.555c0,0.619-0.492,1.111-1.111,1.111c-0.619,0-1.127-0.492-1.127-1.111V3.813l-8.031,8.047c-0.444,0.429-1.159,0.429-1.587,0
	c-0.444-0.444-0.444-1.143,0-1.587l9.952-9.952c0.429-0.429,1.143-0.429,1.571,0L26.477,10.274z"/>
<g>
</g>
<g>
</g>
<g>
</g>
<g>
</g>
<g>
</g>
<g>
</g>
<g>
</g>
<g>
</g>
<g>
</g>
<g>
</g>
<g>
</g>
<g>
</g>
<g>
</g>
<g>
</g>
<g>
</g>
</svg>
